images/icon-social-twitter.svg

<svg height="32" viewBox="0 0 38 32" width="38" xmlns="http://www.w3.org/2000/svg"><path d="m10.052 26.02c12.075 0 18.683-10.014 18.683-18.683 0-.282 0-.563-.013-.845 1.281-.922 2.395-2.087 3.278-3.406-1.178.525-2.446.871-3.778 1.037 1.357-.807 2.395-2.1 2.894-3.637-1.268.756-2.676 1.293-4.174 1.588-1.204-1.281-2.907-2.074-4.789-2.074-3.624 0-6.569 2.945-6.569 6.569 0 .512.064 1.012.166 1.498-5.455-.269-10.295-2.894-13.535-6.864-.563.973-.884 2.1-.884 3.304 0 2.279 1.165 4.29 2.92 5.468-1.076-.038-2.087-.333-2.971-.82v.09c0 3.176 2.267 5.839 5.263 6.441-.551.154-1.127.23-1.729.23-.423 0-.832-.038-1.229-.115.832 2.612 3.265 4.507 6.134 4.559-2.254 1.767-5.084 2.817-8.157 2.817-.525 0-1.05-.026-1.562-.09 2.894 1.844 6.351 2.932 10.052 2.932" fill="#ff453a" fill-rule="evenodd" transform="translate(3 3)"/></svg>

<?xml version="1.0" encoding="UTF-8" standalone="no"?>
<svg width="38px" height="32px" viewBox="0 0 38 32" version="1.1" xmlns="http://www.w3.org/2000/svg" xmlns:xlink="http://www.w3.org/1999/xlink">
    <!-- Generator: Sketch 39.1 (31720) - http://www.bohemiancoding.com/sketch -->
    <title>icon-social-twitter</title>
    <desc>Created with Sketch.</desc>
    <defs></defs>
    <g id="Assets" stroke="none" stroke-width="1" fill="none" fill-rule="evenodd">
        <g id="icon-social-twitter" fill="#F3504B">
            <g id="social-twitter" transform="translate(3.000000, 3.000000)">
                <path d="M10.052,26.02 C22.127,26.02 28.735,16.006 28.735,7.337 C28.735,7.055 28.735,6.774 28.722,6.492 C30.003,5.57 31.117,4.405 32,3.086 C30.822,3.611 29.554,3.957 28.222,4.123 C29.579,3.316 30.617,2.023 31.116,0.486 C29.848,1.242 28.44,1.779 26.942,2.074 C25.738,0.793 24.035,-4.4408921e-16 22.153,-4.4408921e-16 C18.529,-4.4408921e-16 15.584,2.945 15.584,6.569 C15.584,7.081 15.648,7.581 15.75,8.067 C10.295,7.798 5.455,5.173 2.215,1.203 C1.652,2.176 1.331,3.303 1.331,4.507 C1.331,6.786 2.496,8.797 4.251,9.975 C3.175,9.937 2.164,9.642 1.28,9.155 L1.28,9.245 C1.28,12.421 3.547,15.084 6.543,15.686 C5.992,15.84 5.416,15.916 4.814,15.916 C4.391,15.916 3.982,15.878 3.585,15.801 C4.417,18.413 6.85,20.308 9.719,20.36 C7.465,22.127 4.635,23.177 1.562,23.177 C1.037,23.177 0.512,23.151 -6.66133815e-16,23.087 C2.894,24.931 6.351,26.019 10.052,26.019" id="Shape"></path>
            </g>
        </g>
    </g>
</svg>
